src/app/skills/images/webpack.svg

<svg height="1031.6" viewBox="0 0 930.1 1031.6" width="930.1" xmlns="http://www.w3.org/2000/svg"><path d="m901.5 795.1-418.1 236.5v-184.2l260.5-143.3zm28.6-25.9v-494.6l-153 88.3v317.9zm-901.5 25.9 418.1 236.5v-184.2l-260.5-143.3zm-28.6-25.9v-494.6l153 88.3v317.9zm17.9-526.6 428.8-242.6v178.1l-274.7 151.1-2.1 1.2zm894.3 0-428.8-242.6v178.1l274.7 151.1 2.1 1.2z" fill="#8ed6fb"/><path d="m441.615 805.5-257-141.3v-280l257 148.4zm36.7 0 257-141.3v-280l-257 148.4zm-276.3-453.7 258-141.9 258 141.9-258 149z" fill="#1c78c0"/></svg>

<svg xmlns="http://www.w3.org/2000/svg" viewBox="0 0 930.1 1031.6" width="930.1" height="1031.6"><title>icon-square-big</title><path class="st1" d="M901.5 795.1l-418.1 236.5V847.4l260.5-143.3 157.6 91zm28.6-25.9V274.6l-153 88.3v317.9l153 88.4zM28.6 795.1l418.1 236.5V847.4L186.2 704.1l-157.6 91zM0 769.2V274.6l153 88.3v317.9L0 769.2zm17.9-526.6L446.7 0v178.1L172 329.2l-2.1 1.2-152-87.8zm894.3 0L483.4 0v178.1l274.7 151.1 2.1 1.2 152-87.8z" fill="#8ed6fb"/><path d="M441.615 805.5l-257-141.3v-280l257 148.4v272.9zm36.7 0l257-141.3v-280l-257 148.4v272.9zm-18.3-283.6zm-258-170.1l258-141.9 258 141.9-258 149-258-149z" fill="#1c78c0"/></svg>
